flaticon/science/flask-6.svg

<svg xmlns="http://www.w3.org/2000/svg" width="32" height="32" viewBox="0 0 24 24">
    <path d="M 22.800781 20.851562 L 22.800781 7.109375 C 22.871094 7.070312 22.9375 7.019531 23 6.960938 C 23.121094 6.800781 23.199219 6.601562 23.199219 6.398438 L 23.199219 4.039062 C 23.199219 3.839844 23.121094 3.601562 23 3.441406 C 22.9375 3.378906 22.871094 3.328125 22.800781 3.292969 L 22.800781 1.601562 C 22.800781 1.359375 22.640625 1.199219 22.398438 1.199219 L 19.601562 1.199219 C 19.359375 1.199219 19.199219 1.359375 19.199219 1.601562 L 19.199219 3.308594 C 18.960938 3.449219 18.800781 3.707031 18.800781 4 L 16.800781 4 L 16.800781 3.601562 C 16.800781 3.359375 16.640625 3.199219 16.398438 3.199219 L 15.601562 3.199219 L 15.601562 2.335938 C 16.074219 2.175781 16.398438 1.738281 16.398438 1.199219 C 16.398438 0.519531 15.878906 0 15.199219 0 L 8.800781 0 C 8.121094 0 7.601562 0.519531 7.601562 1.199219 C 7.601562 1.738281 7.925781 2.175781 8.398438 2.335938 L 8.398438 3.199219 L 7.601562 3.199219 C 7.359375 3.199219 7.199219 3.359375 7.199219 3.601562 L 7.199219 4 L 5.199219 4 C 5.199219 3.707031 5.039062 3.449219 4.800781 3.308594 L 4.800781 1.601562 C 4.800781 1.359375 4.640625 1.199219 4.398438 1.199219 L 1.601562 1.199219 C 1.359375 1.199219 1.199219 1.359375 1.199219 1.601562 L 1.199219 3.292969 C 1.128906 3.328125 1.0625 3.378906 1 3.441406 C 0.878906 3.601562 0.800781 3.800781 0.800781 4 L 0.800781 6.359375 C 0.800781 6.558594 0.878906 6.800781 1 6.960938 C 1.0625 7.019531 1.128906 7.070312 1.199219 7.109375 L 1.199219 20.851562 C 0.511719 21.03125 0 21.65625 0 22.398438 C 0 23.28125 0.71875 24 1.601562 24 L 10 24 C 10.121094 24 10.199219 23.960938 10.28125 23.878906 L 10.960938 23.199219 L 13.441406 23.199219 L 14.121094 23.878906 C 14.199219 23.960938 14.28125 24 14.398438 24 L 22.398438 24 C 23.28125 24 24 23.28125 24 22.398438 C 24 21.65625 23.488281 21.03125 22.800781 20.851562 Z M 15 20.800781 C 16.796875 19.765625 18 17.824219 18 15.601562 C 18 15.59375 18 15.585938 18 15.582031 C 18 15.574219 18 15.566406 18 15.558594 C 18 15.238281 18 14.921875 17.921875 14.519531 C 17.910156 14.492188 17.898438 14.464844 17.886719 14.441406 C 17.605469 13 16.804688 11.6875 15.601562 10.800781 L 15.601562 7.199219 L 16.398438 7.199219 C 16.640625 7.199219 16.800781 7.039062 16.800781 6.800781 L 16.800781 6.398438 L 18.800781 6.398438 C 18.800781 6.695312 18.960938 6.953125 19.199219 7.089844 L 19.199219 20.800781 Z M 1.601562 4 L 4.398438 4 L 4.398438 6.398438 L 1.601562 6.398438 Z M 2 7.199219 L 4 7.199219 L 4 20.800781 L 2 20.800781 Z M 4.800781 7.089844 C 5.039062 6.953125 5.199219 6.695312 5.199219 6.398438 L 7.199219 6.398438 L 7.199219 6.800781 C 7.199219 7.039062 7.359375 7.199219 7.601562 7.199219 L 8.398438 7.199219 L 8.398438 10.800781 C 6.984375 11.84375 6.125 13.472656 6.011719 15.210938 C 6.007812 15.269531 6.007812 15.328125 6.003906 15.382812 C 6.003906 15.394531 6.003906 15.402344 6.003906 15.410156 C 6 15.472656 6 15.535156 6 15.601562 C 6 17.824219 7.203125 19.765625 9 20.800781 L 4.800781 20.800781 Z M 6.800781 15.601562 C 6.800781 15 6.90625 14.414062 7.109375 13.859375 C 7.1875 13.636719 7.285156 13.417969 7.398438 13.199219 C 8.558594 13.160156 9.679688 13.558594 10.519531 14.28125 C 12.238281 16.039062 15 17.398438 17.078125 15.480469 C 17.117188 15.441406 17.15625 15.402344 17.195312 15.367188 C 17.199219 15.445312 17.199219 15.523438 17.199219 15.601562 C 17.199219 18.480469 14.878906 20.800781 12 20.800781 C 9.121094 20.800781 6.800781 18.480469 6.800781 15.601562 Z M 22.398438 6.398438 L 19.601562 6.398438 L 19.601562 4 L 22.398438 4 Z M 20 7.199219 L 22 7.199219 L 22 20.800781 L 20 20.800781 Z M 20 2 L 22 2 L 22 3.199219 L 20 3.199219 Z M 18.800781 4.800781 L 18.800781 5.601562 L 16.800781 5.601562 L 16.800781 4.800781 Z M 16 4.398438 L 16 6.398438 L 15.199219 6.398438 L 15.199219 4 L 16 4 Z M 8.800781 0.800781 L 15.199219 0.800781 C 15.441406 0.800781 15.601562 0.960938 15.601562 1.199219 C 15.601562 1.441406 15.441406 1.601562 15.199219 1.601562 L 8.800781 1.601562 C 8.558594 1.601562 8.398438 1.441406 8.398438 1.199219 C 8.398438 0.960938 8.558594 0.800781 8.800781 0.800781 Z M 9.199219 2.398438 L 14.800781 2.398438 L 14.800781 3.199219 C 14.558594 3.199219 14.398438 3.359375 14.398438 3.601562 L 14.398438 6.800781 C 14.398438 7.039062 14.558594 7.199219 14.800781 7.199219 L 14.800781 11 C 14.800781 11.121094 14.839844 11.238281 14.960938 11.320312 C 16.035156 12.089844 16.78125 13.210938 17.066406 14.449219 C 16.867188 14.59375 16.703125 14.738281 16.558594 14.878906 C 14.921875 16.398438 12.601562 15.199219 11.078125 13.679688 C 10.199219 12.929688 9.082031 12.472656 7.917969 12.394531 C 8.234375 11.988281 8.609375 11.625 9.039062 11.320312 C 9.121094 11.238281 9.199219 11.121094 9.199219 11 L 9.199219 7.199219 C 9.441406 7.199219 9.601562 7.039062 9.601562 6.800781 L 9.601562 3.601562 C 9.601562 3.359375 9.441406 3.199219 9.199219 3.199219 Z M 8 4 L 8.800781 4 L 8.800781 6.398438 L 8 6.398438 Z M 7.199219 4.800781 L 7.199219 5.601562 L 5.199219 5.601562 L 5.199219 4.800781 Z M 2 2 L 4 2 L 4 3.199219 L 2 3.199219 Z M 22.398438 23.199219 L 14.558594 23.199219 L 13.878906 22.519531 C 13.800781 22.441406 13.71875 22.398438 13.601562 22.398438 L 10.800781 22.398438 C 10.679688 22.398438 10.601562 22.441406 10.519531 22.519531 L 9.839844 23.199219 L 1.601562 23.199219 C 1.160156 23.199219 0.800781 22.839844 0.800781 22.398438 C 0.800781 21.960938 1.160156 21.601562 1.601562 21.601562 L 22.398438 21.601562 C 22.839844 21.601562 23.199219 21.960938 23.199219 22.398438 C 23.199219 22.839844 22.839844 23.199219 22.398438 23.199219 Z M 22.398438 23.199219"/>
</svg>

<svg xmlns="http://www.w3.org/2000/svg" width="32" height="32" viewBox="0 0 24 24">
    <path d="M22.8 20.852V7.109c.071-.039.137-.09.2-.148.121-.16.2-.36.2-.563V4.04c0-.2-.079-.437-.2-.598a.778.778 0 0 0-.2-.148V1.602c0-.243-.16-.403-.402-.403h-2.796c-.243 0-.403.16-.403.403v1.707a.804.804 0 0 0-.398.691h-2v-.398c0-.243-.16-.403-.403-.403h-.796v-.863c.472-.16.796-.598.796-1.137C16.398.52 15.878 0 15.2 0H8.801c-.68 0-1.2.52-1.2 1.2 0 .538.325.976.797 1.136v.863h-.796c-.243 0-.403.16-.403.403V4h-2c0-.293-.16-.55-.398-.691V1.602c0-.243-.16-.403-.403-.403H1.602c-.243 0-.403.16-.403.403v1.691A.778.778 0 0 0 1 3.441c-.121.16-.2.36-.2.559v2.36c0 .199.079.44.2.6.063.06.129.11.2.15v13.742c-.688.18-1.2.804-1.2 1.546C0 23.281.719 24 1.602 24H10c.121 0 .2-.04.281-.121l.68-.68h2.48l.68.68c.078.082.16.121.277.121h8c.883 0 1.602-.719 1.602-1.602 0-.742-.512-1.367-1.2-1.546zM15 20.8a5.989 5.989 0 0 0 3-5.2v-.019-.023c0-.32 0-.637-.078-1.04l-.035-.078a5.927 5.927 0 0 0-2.285-3.64V7.199h.796c.243 0 .403-.16.403-.398v-.403h2c0 .297.16.555.398.692V20.8zM1.602 4h2.796v2.398H1.602zM2 7.2h2v13.6H2zm2.8-.11a.795.795 0 0 0 .4-.692h2v.403c0 .238.16.398.402.398h.796v3.602a5.96 5.96 0 0 0-2.386 4.41c-.004.059-.004.117-.008.172v.027C6 15.473 6 15.535 6 15.602A5.989 5.989 0 0 0 9 20.8H4.8zm2 8.512c0-.602.106-1.188.31-1.743.077-.222.175-.441.288-.66 1.16-.039 2.282.36 3.122 1.082 1.718 1.758 4.48 3.117 6.558 1.2.04-.04.078-.079.117-.114.004.078.004.156.004.235A5.19 5.19 0 0 1 12 20.8a5.19 5.19 0 0 1-5.2-5.2zm15.598-9.204h-2.796V4h2.796zM20 7.2h2v13.602h-2zM20 2h2v1.2h-2zm-1.2 2.8v.802h-2V4.8zM16 4.399v2h-.8V4h.8zM8.8.801h6.4c.241 0 .402.16.402.398 0 .242-.16.403-.403.403H8.801c-.242 0-.403-.16-.403-.403 0-.238.16-.398.403-.398zm.4 1.597h5.6V3.2c-.241 0-.402.16-.402.403V6.8c0 .238.16.398.403.398V11c0 .121.039.238.16.32a5.345 5.345 0 0 1 2.105 3.13c-.199.144-.363.288-.507.429-1.637 1.52-3.957.32-5.48-1.2a5.453 5.453 0 0 0-3.161-1.284c.316-.407.691-.77 1.121-1.075.082-.082.16-.199.16-.32V7.2c.242 0 .403-.16.403-.4V3.603c0-.243-.16-.403-.403-.403zM8 4h.8v2.398H8zm-.8.8v.802h-2V4.8zM2 2h2v1.2H2zm20.398 21.2h-7.84l-.68-.68a.366.366 0 0 0-.276-.122H10.8c-.121 0-.2.043-.281.122l-.68.68H1.602c-.442 0-.801-.36-.801-.802 0-.437.36-.796.8-.796h20.797c.442 0 .801.359.801.796 0 .442-.36.801-.8.801zm0 0"/>
</svg>
